project/img/header_icon-fon.svg

<svg width="635" height="451" viewBox="0 0 635 451" fill="none" xmlns="http://www.w3.org/2000/svg">
<path opacity="0.1" d="M350.5 -26.0777C308.151 -18.7885 261.945 82.1664 221.114 76.7361C180.283 71.3059 139.547 64.3713 97.1086 65.7166C69.8247 66.5911 39.4744 72.1192 20.5951 89.0826C2.43356 105.41 -0.164343 127.724 0.0076642 147.898C0.138152 163.082 1.52014 178.804 11.4906 191.004C18.4124 199.479 28.9938 205.625 36.9951 213.459C64.8721 240.72 56.9657 282.951 39.3142 318.719C31.0104 335.493 20.862 351.967 15.2926 369.163C9.72309 386.358 9.17149 404.906 19.6698 419.172C30.0733 433.286 49.9727 441.425 70.6788 445.779C112.726 454.628 159.393 450.06 204.53 443.712C304.43 429.568 403.245 406.691 501.705 383.882C538.164 375.437 574.784 366.949 609.862 354.529C629.34 347.643 649.156 338.978 661.63 325.28C677.46 307.883 677.603 283.869 661.962 269.296C635.752 244.891 739.322 203.242 718.937 175.442C707.703 160.154 710.354 83.793 718.937 65.7166C737.323 26.9466 667.152 48.9078 661.962 9.94819C658.403 -16.8117 588.052 -19.8831 554.659 -26.0777C519.664 -32.572 460.222 -43.1092 440.43 -16.5083C420.02 10.8753 387.891 -32.5108 350.5 -26.0777Z" fill="#6C63FF"/>
</svg>

<svg width="635" height="451" fill="none" xmlns="http://www.w3.org/2000/svg"><path opacity=".1" d="M350.5-26.078c-42.349 7.29-88.555 108.244-129.386 102.814-40.831-5.43-81.567-12.365-124.005-11.02-27.284.875-57.635 6.403-76.514 23.367C2.434 105.41-.165 127.724.008 147.898c.13 15.184 1.512 30.906 11.483 43.106 6.921 8.475 17.503 14.621 25.504 22.455 27.877 27.261 19.97 69.492 2.32 105.26-8.305 16.774-18.453 33.248-24.022 50.444-5.57 17.195-6.122 35.743 4.377 50.009 10.403 14.114 30.303 22.253 51.009 26.607 42.047 8.849 88.714 4.281 133.851-2.067 99.9-14.144 198.715-37.021 297.175-59.83 36.459-8.445 73.079-16.933 108.157-29.353 19.478-6.886 39.294-15.551 51.768-29.249 15.83-17.397 15.973-41.411.332-55.984-26.21-24.405 77.36-66.054 56.975-93.854-11.234-15.288-8.583-91.649 0-109.725 18.386-38.77-51.785-16.81-56.975-55.769-3.559-26.76-73.91-29.831-107.303-36.026-34.995-6.494-94.437-17.031-114.229 9.57-20.41 27.383-52.539-16.003-89.93-9.57z" fill="#6C63FF"/></svg>
